X:1115
T:When the Work's All Done This Fall
C:Traditional American
B:Northern Junket Vol. 5, No. 9, February 1957
S:Colin Hume's website,  colinhume.com  - chords can also be printed below the stave.
Q:1/2=112
M:2/2
L:1/4
%%MIDI ratio 3 1
K:C
P:A
G | "C"CC EG | c c2 c | "Dm"dD D>D | D3 D | "G7"DE FG | BB3 | "C"AG G>F | E4 |
P:B
"C"CC EG | c c3 | "Dm"dF FF | F3 E | "G7"DE FG | B B2 G | "G7"A>G FD | "C"C3 |]

